img/settings.svg

<svg fill="none" height="800" viewBox="0 0 24 24" width="800" xmlns="http://www.w3.org/2000/svg">
    <path clip-rule="evenodd"
          d="m14.2788 2.15224c-.3703-.15224-.8398-.15224-1.7788-.15224s-1.4085 0-1.7788.15224c-.4938.20299-.88611.59234-1.09064 1.08239-.09337.22371-.12991.48387-.14421.86336-.02101.55769-.30919 1.0739-.79618 1.35294-.48699.27903-1.08153.26861-1.57868.00783-.33831-.17746-.5836-.27614-.8255-.30774-.5299-.06924-1.06581.07327-1.48983.39618-.31802.24218-.55277.6457-1.02226 1.45273-.46949.80704-.70423 1.21055-.75655 1.60498-.06977.52589.07383 1.05775.3992 1.47859.14851.1921.35722.3535.68115.5555.47621.297.78262.8029.78259 1.361s-.30643 1.0639-.78259 1.3608c-.32398.2021-.53273.3636-.68125.5557-.32537.4208-.46896.9526-.3992 1.4785.05232.3944.28707.798.75655 1.605.46949.807.70424 1.2106 1.02226 1.4527.42402.3229.95993.4654 1.48983.3962.24189-.0316.48716-.1303.82544-.3077.49719-.2608 1.09177-.2712 1.57879.0078.48702.2791.77521.7953.79623 1.3531.0143.3794.05084.6396.14421.8633.20453.49.59684.8794 1.09064 1.0824.3703.1522.8398.1522 1.7788.1522s1.4085 0 1.7788-.1522c.4938-.203.8861-.5924 1.0906-1.0824.0934-.2237.13-.4839.1443-.8634.021-.5577.3091-1.0739.7961-1.353s1.0816-.2686 1.5788-.0078c.3383.1774.5835.276.8254.3076.5299.0693 1.0658-.0732 1.4898-.3961.3181-.2422.5528-.6457 1.0223-1.4528.4695-.807.7042-1.2105.7566-1.6049.0697-.5259-.0739-1.0578-.3992-1.4786-.1486-.1921-.3573-.3536-.6813-.5556-.4761-.2969-.7825-.8028-.7825-1.3609s.3064-1.0638.7825-1.3607c.3241-.2021.5328-.3635.6814-.5557.3253-.42077.4689-.95263.3992-1.47853-.0524-.39442-.2871-.79794-.7566-1.60497s-.7042-1.21055-1.0223-1.45273c-.424-.32291-.9599-.46542-1.4898-.39618-.2419.0316-.4872.13027-.8254.30771-.4972.26079-1.0918.27122-1.5788-.00784-.487-.27905-.7752-.7953-.7963-1.35302-.0143-.37946-.0508-.63961-.1442-.86331-.2045-.49005-.5968-.8794-1.0906-1.08239zm-1.7788 12.84776c1.6695 0 3.0228-1.3431 3.0228-3s-1.3533-3-3.0228-3-3.02284 1.3431-3.02284 3 1.35334 3 3.02284 3z"
          fill="#ffffff" fill-rule="evenodd"/>
</svg>

<?xml version="1.0" encoding="UTF-8" standalone="no"?>
<svg width="100%" height="100%" viewBox="0 0 800 800" version="1.1" xmlns="http://www.w3.org/2000/svg"
     style="fill-rule:evenodd;clip-rule:evenodd;stroke-linejoin:round;stroke-miterlimit:2;">
    <g transform="matrix(25,0,0,25,104.167,100)">
        <path fill="black" d="M14.279,2.152C13.909,2 13.439,2 12.5,2C11.561,2 11.092,2 10.721,2.152C10.227,2.355 9.835,2.745 9.631,3.235C9.537,3.458 9.501,3.719 9.486,4.098C9.465,4.656 9.177,5.172 8.69,5.451C8.203,5.73 7.609,5.72 7.111,5.459C6.773,5.281 6.528,5.183 6.286,5.151C5.756,5.082 5.22,5.224 4.796,5.547C4.478,5.789 4.243,6.193 3.774,7C3.304,7.807 3.07,8.21 3.017,8.605C2.948,9.131 3.091,9.663 3.417,10.084C3.565,10.276 3.774,10.437 4.098,10.639C4.574,10.936 4.88,11.442 4.88,12C4.88,12.558 4.574,13.064 4.098,13.361C3.774,13.563 3.565,13.724 3.416,13.917C3.091,14.337 2.947,14.869 3.017,15.395C3.07,15.789 3.304,16.193 3.774,17C4.243,17.807 4.478,18.211 4.796,18.453C5.22,18.776 5.756,18.918 6.286,18.849C6.528,18.817 6.773,18.719 7.111,18.541C7.609,18.28 8.203,18.27 8.69,18.549C9.177,18.828 9.465,19.344 9.486,19.902C9.501,20.282 9.537,20.542 9.631,20.765C9.835,21.255 10.227,21.645 10.721,21.848C11.092,22 11.561,22 12.5,22C13.439,22 13.909,22 14.279,21.848C14.773,21.645 15.165,21.255 15.369,20.765C15.463,20.542 15.499,20.282 15.514,19.902C15.535,19.344 15.823,18.828 16.31,18.549C16.797,18.27 17.391,18.28 17.889,18.541C18.227,18.719 18.472,18.817 18.714,18.849C19.244,18.918 19.78,18.776 20.204,18.453C20.522,18.211 20.757,17.807 21.226,17C21.696,16.193 21.93,15.789 21.983,15.395C22.052,14.869 21.909,14.337 21.583,13.916C21.435,13.724 21.226,13.563 20.902,13.361C20.426,13.064 20.12,12.558 20.12,12C20.12,11.442 20.426,10.936 20.902,10.639C21.226,10.437 21.435,10.276 21.584,10.084C21.909,9.663 22.052,9.131 21.983,8.605C21.93,8.211 21.696,7.807 21.226,7C20.757,6.193 20.522,5.789 20.204,5.547C19.78,5.224 19.244,5.082 18.714,5.151C18.472,5.183 18.227,5.281 17.889,5.459C17.392,5.72 16.797,5.73 16.31,5.451C15.823,5.172 15.535,4.656 15.514,4.098C15.499,3.718 15.463,3.458 15.369,3.235C15.165,2.745 14.773,2.355 14.279,2.152ZM12.5,15C14.169,15 15.523,13.657 15.523,12C15.523,10.343 14.169,9 12.5,9C10.831,9 9.477,10.343 9.477,12C9.477,13.657 10.83,15 12.5,15Z"/>
    </g>
</svg>
